src/assets/billing/dinners-club.svg

<svg width="34" height="17" viewBox="0 0 34 17" fill="none" xmlns="http://www.w3.org/2000/svg">
<rect width="34" height="17" fill="white"/>
<path d="M17.7723 15C21.3843 15.017 24.6811 12.1023 24.6811 8.55649C24.6811 4.67893 21.3843 1.99871 17.7723 2H14.6638C11.0086 1.99871 8 4.67973 8 8.55649C8 12.1031 11.0086 15.017 14.6638 15H17.7723Z" fill="#0079BE"/>
<path d="M14.6787 2.53723C11.3387 2.53826 8.63213 5.20146 8.63135 8.48837C8.63213 11.7747 11.3386 14.4376 14.6787 14.4387C18.0195 14.4376 20.7266 11.7747 20.7271 8.48837C20.7266 5.20146 18.0195 2.53826 14.6787 2.53723ZM10.8455 8.48837C10.8486 6.8822 11.8683 5.51255 13.3063 4.96828V12.0076C11.8683 11.4637 10.8486 10.0948 10.8455 8.48837ZM16.0506 12.0092V4.96805C17.4891 5.51101 18.5104 6.88142 18.513 8.48837C18.5104 10.0958 17.4891 11.4652 16.0506 12.0092Z" fill="white"/>
<path d="M17.7723 15C21.3843 15.017 24.6811 12.1023 24.6811 8.55649C24.6811 4.67893 21.3843 1.99871 17.7723 2H14.6638C11.0086 1.99871 8 4.67973 8 8.55649C8 12.1031 11.0086 15.017 14.6638 15H17.7723Z" fill="#0079BE"/>
<path d="M14.6787 2.53723C11.3387 2.53826 8.63213 5.20146 8.63135 8.48837C8.63213 11.7747 11.3386 14.4376 14.6787 14.4387C18.0195 14.4376 20.7266 11.7747 20.7271 8.48837C20.7266 5.20146 18.0195 2.53826 14.6787 2.53723ZM10.8455 8.48837C10.8486 6.8822 11.8683 5.51255 13.3063 4.96828V12.0076C11.8683 11.4637 10.8486 10.0948 10.8455 8.48837ZM16.0506 12.0092V4.96805C17.4891 5.51101 18.5104 6.88142 18.513 8.48837C18.5104 10.0958 17.4891 11.4652 16.0506 12.0092Z" fill="white"/>
</svg>

<svg xmlns="http://www.w3.org/2000/svg" width="34" height="17" fill="none">
    <path fill="#fff" d="M0 0h34v17H0z" />
    <path fill="#0079BE"
        d="M17.77 15c3.61.02 6.91-2.9 6.91-6.44 0-3.88-3.3-6.56-6.9-6.56h-3.12A6.47 6.47 0 0 0 8 8.56c0 3.54 3 6.46 6.66 6.44h3.11Z" />
    <path fill="#fff"
        d="M14.68 2.54a6 6 0 0 0-6.05 5.95 6 6 0 0 0 6.05 5.95 6 6 0 0 0 6.05-5.95 6 6 0 0 0-6.05-5.95Zm-3.83 5.95c0-1.6 1.02-2.98 2.46-3.52V12a3.78 3.78 0 0 1-2.46-3.52Zm5.2 3.52V4.97a3.78 3.78 0 0 1 2.46 3.52c0 1.6-1.02 2.98-2.46 3.52Z" />
    <path fill="#0079BE"
        d="M17.77 15c3.61.02 6.91-2.9 6.91-6.44 0-3.88-3.3-6.56-6.9-6.56h-3.12A6.47 6.47 0 0 0 8 8.56c0 3.54 3 6.46 6.66 6.44h3.11Z" />
    <path fill="#fff"
        d="M14.68 2.54a6 6 0 0 0-6.05 5.95 6 6 0 0 0 6.05 5.95 6 6 0 0 0 6.05-5.95 6 6 0 0 0-6.05-5.95Zm-3.83 5.95c0-1.6 1.02-2.98 2.46-3.52V12a3.78 3.78 0 0 1-2.46-3.52Zm5.2 3.52V4.97a3.78 3.78 0 0 1 2.46 3.52c0 1.6-1.02 2.98-2.46 3.52Z" />
</svg>
